src/app/icons/_Wigwam.svg

<svg fill="none" height="111" viewBox="0 0 178 111" width="178" xmlns="http://www.w3.org/2000/svg" xmlns:xlink="http://www.w3.org/1999/xlink"><linearGradient id="a"><stop offset=".00121575" stop-color="#80ef6e"/><stop offset="1" stop-color="#80ef6e"/></linearGradient><linearGradient id="b" gradientUnits="userSpaceOnUse" x1="154.154" x2="117.537" xlink:href="#a" y1="-19.6787" y2="23.9591"/><linearGradient id="c" gradientUnits="userSpaceOnUse" x1="58.3806" x2="26.5586" xlink:href="#a" y1="11.7324" y2="49.6563"/><linearGradient id="d" gradientUnits="userSpaceOnUse" x1="166.104" x2="74.7521" xlink:href="#a" y1="-9.65075" y2="99.2185"/><path d="m97.6855 0h79.9095l-62.157 22.1906z" fill="url(#b)"/><path d="m66.5953 83.2441-66.5953-83.2441h44.4047l44.4047 55.5117z" fill="url(#c)"/><path d="m66.5947 83.2441 48.8433-61.0535 62.157-22.1906-88.7862 111z" fill="url(#d)"/></svg>

<svg width="178" height="111" viewBox="0 0 178 111" fill="none" xmlns="http://www.w3.org/2000/svg">
<path d="M97.6855 0H177.595L115.438 22.1906L97.6855 0Z" fill="url(#paint0_linear_714_19498)"/>
<path d="M66.5953 83.2441L0 0H44.4047L88.8094 55.5117L66.5953 83.2441Z" fill="url(#paint1_linear_714_19498)"/>
<path d="M66.5947 83.2441L115.438 22.1906L177.595 0L88.8088 111L66.5947 83.2441Z" fill="url(#paint2_linear_714_19498)"/>
<defs>
<linearGradient id="paint0_linear_714_19498" x1="154.154" y1="-19.6787" x2="117.537" y2="23.9591" gradientUnits="userSpaceOnUse">
<stop offset="0.00121575" stop-color="#80EF6E"/>
<stop offset="1" stop-color="#80EF6E"/>
</linearGradient>
<linearGradient id="paint1_linear_714_19498" x1="58.3806" y1="11.7324" x2="26.5586" y2="49.6563" gradientUnits="userSpaceOnUse">
<stop offset="0.00121575" stop-color="#80EF6E"/>
<stop offset="1" stop-color="#80EF6E"/>
</linearGradient>
<linearGradient id="paint2_linear_714_19498" x1="166.104" y1="-9.65075" x2="74.7521" y2="99.2185" gradientUnits="userSpaceOnUse">
<stop offset="0.00121575" stop-color="#80EF6E"/>
<stop offset="1" stop-color="#80EF6E"/>
</linearGradient>
</defs>
</svg>
